X: 12011
T: Epic
R: reel
M: 4/4
K: Bminor
|:F2AF ABBA|BcBA BAFC|D2AD ABBA|Bcec BAFE|
F2AF ABBA|BcBA BAFC|D2AD ABBA|Bcec BAFE:|
|:FAcA FAcA|EAcA EAcA|DABA DABA|EABA EABA|
FAcA FAcA|EAcA EAcA|DABA DABA|EABA EABA:|

